X: 20313
T: FAVOURITE FRENCH AIR
Q: "With spirit."
%R: air, march, polka
B: W. Hamilton "Universal Tune-Book" Vol. 2 Glasgow 1846 p.31 #3
S: http://s3-eu-west-1.amazonaws.com/itma.dl.printmaterial/book_pdfs/hamiltonvol2web.pdf
Z: 2016 John Chambers <jc:trillian.mit.edu>
M: 2/4
L: 1/16
K: A
% - - - - - - - - - - - - - - - - - - - - - - - - -
.e.e |\
.c2.e2.A2.c2 | .B2.c2.d2 FF |\
.G2.A2.B2.E2 | .A2.B2.c2 ee |\
.c2.e2.A2.c2 | .B2.c2.d2 dd |\
.f2.B.B .d2.G2 | A6 H:|
{^d}c>B |\
(B2f2B2) {^d}c>B | B2g2e2 ze |\
^d3d b3b | b2g2e2 {^d}c>B |\
B2f2B2 {^d}c>B | B2g2e2 ze |\
^d3d b3b | "^D.C."e6 |]
% - - - - - - - - - - - - - - - - - - - - - - - - -

%%sep 1 1 500
%%sep 1 1 500

